X:1081
T:Cross Reel, The
T:Da Cross Reel
R:reel
H:Descended from the Scottish reel "The Lasses of Stewarton"
D:The Silver Bow
O:Shetland
Z:id:hn-reel-1081
M:C|
L:1/8
K:Dmix
fage d2d2 | ABAF D3f | gfed c2c2 |1 EDEF G3e :|2 EDEF G3A ||
BGBG AFAF | BGBG A3A | BGBG AFAD | EDEF G3D |
FGAc BGBG | AFAF d2dA | FGAc BGBG | AFAF G3A ||
defg afde | fdfg a2fe | defg afdf | ecef g2ge | defg afde | fdfg a2ag || 

